X: 13
T: Bunker Hill
Z: GoPlayer
S: https://thesession.org/tunes/207#setting52526
R: reel
M: 4/4
L: 1/8
K: Dmix
~d2cA | GE~E2 D2z2 | d2z2 D2z2 | ~d2z2 d2z2 | d2z2 d2cA ||
G~e3 d2z2 | EDEG .c2~B2 | ABAG eg~g2 | ABcA .d2cA |
G~e3 d2z2 | edeG .c2~B2 | ABAG eg~g2 | ABcA .d2cA |
G~e3 d2z2 | edeG .c2~B2 | ABAg eg~g2 | ABcA .d2cA |
G~e3 d2z2 | edeG .c2~B2 | ABAg eg~g2 | ABcA .d2cA ||
GccB c2z2 | Gcc2 cBAG | Add^c d2z2 | dedB cBAG |
EGAB c2z2 | BAdB c2Bc | dB (3cBA Bg~g2 | ABcA .d2cA |
GBcB c2z2 | GBc2 cBAG | Add^c d2z2 | dedB cBAG |
EGAB c2z2 | cAdB c2Bc | dB (3cBA Bg~g2 | ABcA d2z2 ||
ed~d2 aded | aded a2z2 | ge~e2 e2ed | (3Bcd ef g2ag |
fAeA d2z2 | (3cBA dB c2Bc | dB (3cBA BGG2 | ABcA d2z2 |
ed~d2 aded | aded a2z2 | g~eed e2ed | (3Bcd ef g2ag |
fAeA d2z2 | (3cBA dB c2Bc | dB (3cBA Bgg2 | ABcA .d2cA ||

